X:586
T: Jiandiao bianzi danghongjun
N: C2007
O: China, Fujian Taining
S: II, 585]
R: Shange]
M: 2/4
L: 1/16
K: Bb
c2c2c2c2 | b2d2c2c2 | b2g2g2b2 | c2b2g2g2 |
f2g2g2gf | d2f2g2g2 | c2cbg2b2 | c2c2b2g2 | g2g6

